X: 383
T:Young Collins
T:Young Colin's Odd
O:Cotswold morris tune from Oddington, England
M:4/4
K:G
"G"GABc d2d2|"C"c2dc "G"B2B2|"Am"c2Ac "Em"B2GB|"D"A2F2 "G"G4 |
"G"GABc dcd2|"C"c2dc "G"BAB2|"Am"cBAc "Em"BAGB|[1 "D"A2F2 "G"G4:|[2 "D"A2F2 "G"G3||
F|\
"Em"E2E2 EFGA|"Bm"B2B2 B3B|"C"c2c2 BcBG|"D"d2d2 d4|\
"G"G2Bc d2d2|"C"c2dc "G"B2B2|"Am"c2Ac "Em"B2GB|[1 "D"A2F2 "G"G3:|[2 "D"A2F2 "G"G4||
